pix_core/f/markup.svg

<svg fill="none" preserveAspectRatio="xMinYMid meet" viewBox="0 0 24 24" xmlns="http://www.w3.org/2000/svg"><g fill="#fff"><path d="m9.81937 11.8504c.19523-.1953.19523-.5119 0-.7071-.19526-.1953-.51184-.1953-.7071 0l-2 2c-.09377.0937-.14645.2209-.14645.3535s.05268.2598.14645.3536l2 2c.19526.1952.51184.1952.7071 0 .19523-.1953.19523-.5119 0-.7071l-1.64644-1.6465z"/><path d="m14.1801 16.8567c-.1952-.1952-.1952-.5118 0-.7071l1.6465-1.6464-1.6465-1.6465c-.1952-.1952-.1952-.5118 0-.7071.1953-.1952.5119-.1952.7071 0l2 2c.0938.0938.1465.221.1465.3536s-.0527.2598-.1465.3535l-2 2c-.1952.1953-.5118.1953-.7071 0z"/><path d="m13.3082 11.0781c.0721-.2666-.0855-.5411-.3521-.6132-.2665-.0721-.5411.0855-.6132.3521l-1.6515 6.1051c-.0721.2665.0855.5411.352.6132.2666.0721.5412-.0855.6133-.3521z"/><path clip-rule="evenodd" d="m19.5 19v-10.17157c0-.66304-.2634-1.29893-.7322-1.76777l-3.8285-3.82843c-.4688-.46884-1.1047-.73223-1.7677-.73223h-6.1716c-1.38071 0-2.5 1.11929-2.5 2.5v14c0 1.3807 1.11929 2.5 2.5 2.5h10c1.3807 0 2.5-1.1193 2.5-2.5zm-12.5-15.5c-.82843 0-1.5.67157-1.5 1.5v14c0 .8284.67157 1.5 1.5 1.5h10c.8284 0 1.5-.6716 1.5-1.5v-10c0-.27614-.2239-.5-.5-.5h-3c-.8284 0-1.5-.67157-1.5-1.5v-3c0-.27614-.2239-.5-.5-.5zm10.7929 4-3.2929-3.29289v2.79289c0 .27614.2239.5.5.5z" fill-rule="evenodd"/></g></svg>

<svg viewBox="0 0 24 24" fill="none" xmlns="http://www.w3.org/2000/svg" preserveAspectRatio="xMinYMid meet">
<path  d="M9.81937 11.8504C10.0146 11.6551 10.0146 11.3385 9.81937 11.1433C9.62411 10.948 9.30753 10.948 9.11227 11.1433L7.11227 13.1433C7.0185 13.237 6.96582 13.3642 6.96582 13.4968C6.96582 13.6294 7.0185 13.7566 7.11227 13.8504L9.11227 15.8504C9.30753 16.0456 9.62411 16.0456 9.81937 15.8504C10.0146 15.6551 10.0146 15.3385 9.81937 15.1433L8.17293 13.4968L9.81937 11.8504Z" fill="#fff"/>
<path  d="M14.1801 16.8567C13.9849 16.6615 13.9849 16.3449 14.1801 16.1496L15.8266 14.5032L14.1801 12.8567C13.9849 12.6615 13.9849 12.3449 14.1801 12.1496C14.3754 11.9544 14.692 11.9544 14.8872 12.1496L16.8872 14.1496C16.981 14.2434 17.0337 14.3706 17.0337 14.5032C17.0337 14.6358 16.981 14.763 16.8872 14.8567L14.8872 16.8567C14.692 17.052 14.3754 17.052 14.1801 16.8567Z" fill="#fff"/>
<path  d="M13.3082 11.0781C13.3803 10.8115 13.2227 10.537 12.9561 10.4649C12.6896 10.3928 12.415 10.5504 12.3429 10.817L10.6914 16.9221C10.6193 17.1886 10.7769 17.4632 11.0434 17.5353C11.31 17.6074 11.5846 17.4498 11.6567 17.1832L13.3082 11.0781Z" fill="#fff"/>
<path fill-rule="evenodd" clip-rule="evenodd" d="M19.5 19V8.82843C19.5 8.16539 19.2366 7.5295 18.7678 7.06066L14.9393 3.23223C14.4705 2.76339 13.8346 2.5 13.1716 2.5H7C5.61929 2.5 4.5 3.61929 4.5 5V19C4.5 20.3807 5.61929 21.5 7 21.5H17C18.3807 21.5 19.5 20.3807 19.5 19ZM7 3.5C6.17157 3.5 5.5 4.17157 5.5 5V19C5.5 19.8284 6.17157 20.5 7 20.5H17C17.8284 20.5 18.5 19.8284 18.5 19V9C18.5 8.72386 18.2761 8.5 18 8.5H15C14.1716 8.5 13.5 7.82843 13.5 7V4C13.5 3.72386 13.2761 3.5 13 3.5H7ZM17.7929 7.5L14.5 4.20711V7C14.5 7.27614 14.7239 7.5 15 7.5H17.7929Z" fill="#fff"/>
</svg>
